resources/images/collections/vote-next-month-winners-dark.svg

<svg width="245" height="220" viewBox="0 0 245 220" fill="none" xmlns="http://www.w3.org/2000/svg">
  <path opacity="0.2"
    d="M0.349701 84.1859C6.07541 158.526 83.8498 205.704 122.021 220C162.703 206.494 237.277 159.227 244.057 84.1859C256.226 -9.58508 147.004 -22.3428 122.021 32.6078C97.9978 -22.3428 -6.80745 -8.73947 0.349701 84.1859Z"
    fill="#505D6A" />
  <path opacity="0.4"
    d="M24.2812 88.7314C28.8851 148.542 91.4221 186.498 122.115 198C154.826 187.134 214.79 149.105 220.242 88.7314C230.027 13.2884 142.203 3.02417 122.115 47.2345C102.798 3.02417 18.5263 13.9687 24.2812 88.7314Z"
    fill="#505D6A" />
  <path opacity="0.6"
    d="M52.2013 94.5982C55.4965 137.513 100.256 164.747 122.224 173C145.637 165.203 188.555 137.917 192.458 94.5982C199.461 40.4668 136.602 33.1021 122.224 64.8236C108.399 33.1021 48.0822 40.9549 52.2013 94.5982Z"
    fill="#505D6A" />
  <path
    d="M123.404 96.0895L137.199 44.6068L190.476 58.8824L176.682 110.365C176.416 111.356 175.397 111.944 174.406 111.679L124.718 98.3649C123.727 98.0993 123.139 97.0806 123.404 96.0895Z"
    stroke="#788A98" stroke-width="2" stroke-linecap="round" />
  <path d="M141.545 52.1324L182.951 63.2274L171.857 104.634L130.45 93.5392L141.545 52.1324Z" fill="#5D6F7D" />
  <path d="M136.493 43.3821L191.702 58.1754L194.66 47.1336L139.451 32.3403L136.493 43.3821Z" fill="#5D6F7D" />
  <path
    d="M163.407 81.507C161.094 84.1338 157.492 85.2227 154.112 84.3169C150.731 83.4111 148.157 80.6672 147.467 77.236"
    stroke="#23272D" stroke-width="2" stroke-linecap="round" stroke-linejoin="round" />
  <path d="M151.43 71.7935L151.165 72.7814" stroke="#23272D" stroke-width="2" stroke-linecap="round"
    stroke-linejoin="round" />
  <path d="M163.946 75.1467L163.681 76.1347" stroke="#23272D" stroke-width="2" stroke-linecap="round"
    stroke-linejoin="round" />
  <path
    d="M86 151.802C98.8662 162.263 112.691 169.419 122.224 173C145.637 165.203 188.555 137.917 192.458 94.5982C193.277 88.2621 193.14 82.5668 192.235 77.4999M57.116 115C54.5 108.658 52.7583 101.852 52.2013 94.5982C48.0823 40.9549 108.399 33.102 122.224 64.8236C123.973 60.9666 126.438 57.6874 129.407 54.9999"
    stroke="#788A98" stroke-width="2" stroke-linecap="round" />
  <path
    d="M89.0956 102.96C90.6614 123.234 111.93 136.101 122.369 140C133.494 136.317 153.888 123.425 155.742 102.96C159.07 77.3859 129.201 73.9065 122.369 88.893C115.799 73.9065 87.1384 77.6165 89.0956 102.96Z"
    fill="#A4B1BC" />
  <g filter="url(#filter0_b_25673_15386)">
    <path
      d="M131.919 130.601C118.905 120.841 115.652 106.435 122.484 104.249C128.737 102.248 135.951 112.746 143.979 120.516C143.445 119.323 143.549 116.254 144.607 114.985C145.939 113.386 150.109 109.605 157.295 114.546C157.187 112.957 157.907 110.277 161.199 109.454C164.841 108.544 167.686 109.544 170.96 112.342C171.177 111.163 172.391 108.803 175.514 108.803C179.419 108.803 195.035 114.009 199.264 139.711C208.049 139.711 209.35 145.892 208.374 153.05C207.772 157.461 203.422 165.956 196.336 170.99C193.584 172.946 190.745 175.355 187.227 175.824C177.467 177.125 173.562 170.99 174.213 165.087C172.912 165.955 168.747 167.82 162.501 168.341C149.487 169.317 134.196 159.231 133.871 149.471C133.611 141.663 139.161 139.711 141.968 139.711C139.39 136.86 136.068 133.713 131.919 130.601Z"
      fill="#3D444D" />
  </g>
  <path
    d="M144.607 114.985C143.55 116.254 143.445 119.323 143.98 120.516C145.567 122.052 147.187 123.482 148.837 124.688C148.62 123.948 148.121 122.273 147.861 121.492C147.08 118.368 145.367 115.852 144.607 114.985Z"
    fill="#2C3139" />
  <path
    d="M133.871 149.471C133.611 141.663 139.161 139.711 141.969 139.711C144.101 142.07 145.724 144.226 146.885 145.995C147.841 147.452 148.483 148.646 148.837 149.471C137.385 138.279 134.595 147.194 134.632 153.05C134.175 151.866 133.911 150.666 133.871 149.471Z"
    fill="#2C3139" />
  <path
    d="M174.213 165.087C172.912 165.955 168.748 167.82 162.501 168.341C157.292 168.731 151.718 167.35 146.885 164.926C162.761 169.742 173.669 161.401 177.139 156.629C175.69 159.471 174.674 162.377 174.213 165.087Z"
    fill="#2C3139" />
  <path
    d="M182.347 166.714C182.087 176.344 191.565 173.035 196.337 170.99C188.528 174.337 181.756 162.745 194.02 149.471C188.51 152.904 182.524 160.148 182.347 166.714Z"
    fill="#2C3139" />
  <path
    d="M160.932 117.588C159.644 116.327 158.432 115.327 157.296 114.546C157.219 113.423 157.556 111.756 158.922 110.583C159.443 112.007 160.106 114.111 160.373 114.985L160.932 117.588Z"
    fill="#2C3139" />
  <path
    d="M174.213 115.512C173.061 114.28 171.989 113.222 170.96 112.342C171.089 111.643 171.568 110.53 172.587 109.739C173.107 110.747 173.454 112.138 173.563 112.708L174.213 115.512Z"
    fill="#2C3139" />
  <path
    d="M199.265 139.711C195.878 139.711 192.562 140.844 189.504 142.719C192.191 140.428 196.92 133.496 194.347 124.094C196.454 128.188 198.212 133.314 199.265 139.711Z"
    fill="#2C3139" />
  <path
    d="M148.837 149.471C148.483 148.646 147.841 147.452 146.884 145.995C145.724 144.226 144.101 142.07 141.968 139.711M151.439 126.372C150.563 125.882 149.696 125.316 148.837 124.688M143.979 120.516C135.951 112.746 128.737 102.248 122.484 104.249C115.652 106.435 118.905 120.841 131.919 130.601C136.068 133.713 139.39 136.86 141.968 139.711M143.979 120.516C143.445 119.323 143.549 116.254 144.607 114.985C145.939 113.386 150.109 109.605 157.295 114.546M143.979 120.516C145.567 122.052 147.186 123.482 148.837 124.688M162.501 119.214C161.966 118.629 161.443 118.088 160.932 117.588M157.295 114.546C157.187 112.957 157.907 110.277 161.199 109.454C164.841 108.544 167.686 109.544 170.96 112.342M157.295 114.546C158.432 115.327 159.644 116.327 160.932 117.588M175.514 116.937C175.069 116.439 174.635 115.964 174.213 115.512M170.96 112.342C171.177 111.163 172.391 108.803 175.514 108.803C179.419 108.803 195.035 114.009 199.264 139.711M170.96 112.342C171.989 113.222 173.061 114.28 174.213 115.512M199.264 139.711C187.227 139.711 176.091 154.026 174.213 165.087M199.264 139.711C208.049 139.711 209.35 145.892 208.374 153.05C207.772 157.461 203.422 165.956 196.336 170.99M141.968 139.711C139.161 139.711 133.611 141.663 133.871 149.471C134.196 159.231 149.487 169.317 162.501 168.341C168.747 167.82 172.912 165.955 174.213 165.087M174.213 165.087C173.562 170.99 177.467 177.125 187.227 175.824C190.745 175.355 193.584 172.946 196.336 170.99M196.336 170.99C191.565 173.035 182.086 176.344 182.347 166.714C182.672 154.677 202.518 140.362 203.168 151.423M148.837 124.688C148.62 123.948 148.121 122.273 147.86 121.492M160.932 117.588L160.372 114.985M174.213 115.512L173.562 112.708"
    stroke="#A4B1BC" stroke-width="2" stroke-linecap="round" />
  <defs>
    <filter id="filter0_b_25673_15386" x="105" y="90" width="117.649" height="100" filterUnits="userSpaceOnUse"
      color-interpolation-filters="sRGB">
      <feFlood flood-opacity="0" result="BackgroundImageFix" />
      <feGaussianBlur in="BackgroundImageFix" stdDeviation="7" />
      <feComposite in2="SourceAlpha" operator="in" result="effect1_backgroundBlur_25673_15386" />
      <feBlend mode="normal" in="SourceGraphic" in2="effect1_backgroundBlur_25673_15386" result="shape" />
    </filter>
  </defs>
</svg>

<svg width="245" height="220" viewBox="0 0 245 220" fill="none" xmlns="http://www.w3.org/2000/svg"><path opacity="0.2" d="M.35 84.186C6.075 158.526 83.85 205.704 122.02 220c40.682-13.506 115.256-60.773 122.036-135.814 12.169-93.771-97.053-106.529-122.036-51.578C97.998-22.342-6.807-8.74.35 84.186Z" fill="#505D6A"/><path opacity="0.4" d="M24.281 88.731c4.604 59.811 67.141 97.767 97.834 109.269 32.711-10.866 92.675-48.895 98.127-109.269 9.785-75.443-78.039-85.707-98.127-41.496C102.798 3.024 18.526 13.968 24.281 88.73Z" fill="#505D6A"/><path opacity="0.6" d="M52.201 94.598c3.295 42.915 48.055 70.149 70.023 78.402 23.413-7.797 66.331-35.083 70.234-78.402 7.003-54.131-55.856-61.496-70.234-29.774-13.825-31.722-74.142-23.87-70.023 29.774Z" fill="#505D6A"/><path d="m123.404 96.09 13.795-51.483 53.277 14.275-13.794 51.483a1.86 1.86 0 0 1-2.276 1.314l-49.688-13.314a1.859 1.859 0 0 1-1.314-2.275Z" stroke="#788A98" stroke-width="2" stroke-linecap="round"/><path d="m141.545 52.132 41.406 11.095-11.094 41.407-41.407-11.095 11.095-41.407ZM136.493 43.382l55.209 14.793 2.958-11.041-55.209-14.794-2.958 11.042Z" fill="#5D6F7D"/><path d="M163.407 81.507a9.21 9.21 0 0 1-15.94-4.271M151.43 71.793l-.265.988M163.946 75.147l-.265.988" stroke="#23272D" stroke-width="2" stroke-linecap="round" stroke-linejoin="round"/><path d="M86 151.802c12.866 10.461 26.691 17.617 36.224 21.198 23.413-7.797 66.331-35.083 70.234-78.402.819-6.336.682-12.031-.223-17.098M57.116 115c-2.616-6.342-4.358-13.148-4.915-20.402-4.119-53.643 56.198-61.496 70.023-29.774A29.78 29.78 0 0 1 129.407 55" stroke="#788A98" stroke-width="2" stroke-linecap="round"/><path d="M89.096 102.96c1.565 20.274 22.834 33.141 33.273 37.04 11.125-3.683 31.519-16.575 33.373-37.04 3.328-25.574-26.541-29.053-33.373-14.067-6.57-14.987-35.23-11.276-33.273 14.067Z" fill="#A4B1BC"/><g filter="url(#filter0_b_25673_15386)"><path d="M131.919 130.601c-13.014-9.76-16.267-24.166-9.435-26.352 6.253-2.001 13.467 8.497 21.495 16.267-.534-1.193-.43-4.262.628-5.531 1.332-1.599 5.502-5.38 12.688-.439-.108-1.589.612-4.269 3.904-5.092 3.642-.91 6.487.09 9.761 2.888.217-1.179 1.431-3.539 4.554-3.539 3.905 0 19.521 5.206 23.75 30.908 8.785 0 10.086 6.181 9.11 13.339-.602 4.411-4.952 12.906-12.038 17.94-2.752 1.956-5.591 4.365-9.109 4.834-9.76 1.301-13.665-4.834-13.014-10.737-1.301.868-5.466 2.733-11.712 3.254-13.014.976-28.305-9.11-28.63-18.87-.26-7.808 5.29-9.76 8.097-9.76-2.578-2.851-5.9-5.998-10.049-9.11Z" fill="#3D444D"/></g><path d="M144.607 114.985c-1.057 1.269-1.162 4.338-.627 5.531 1.587 1.536 3.207 2.966 4.857 4.172-.217-.74-.716-2.415-.976-3.196-.781-3.124-2.494-5.64-3.254-6.507ZM133.871 149.471c-.26-7.808 5.29-9.76 8.098-9.76 2.132 2.359 3.755 4.515 4.916 6.284.956 1.457 1.598 2.651 1.952 3.476-11.452-11.192-14.242-2.277-14.205 3.579-.457-1.184-.721-2.384-.761-3.579ZM174.213 165.087c-1.301.868-5.465 2.733-11.712 3.254-5.209.39-10.783-.991-15.616-3.415 15.876 4.816 26.784-3.525 30.254-8.297-1.449 2.842-2.465 5.748-2.926 8.458ZM182.347 166.714c-.26 9.63 9.218 6.321 13.99 4.276-7.809 3.347-14.581-8.245-2.317-21.519-5.51 3.433-11.496 10.677-11.673 17.243ZM160.932 117.588c-1.288-1.261-2.5-2.261-3.636-3.042-.077-1.123.26-2.79 1.626-3.963.521 1.424 1.184 3.528 1.451 4.402l.559 2.603ZM174.213 115.512c-1.152-1.232-2.224-2.29-3.253-3.17.129-.699.608-1.812 1.627-2.603.52 1.008.867 2.399.976 2.969l.65 2.804ZM199.265 139.711c-3.387 0-6.703 1.133-9.761 3.008 2.687-2.291 7.416-9.223 4.843-18.625 2.107 4.094 3.865 9.22 4.918 15.617Z" fill="#2C3139"/><path d="M148.837 149.471c-.354-.825-.996-2.019-1.953-3.476-1.16-1.769-2.783-3.925-4.916-6.284m9.471-13.339a25.616 25.616 0 0 1-2.602-1.684m-4.858-4.172c-8.028-7.77-15.242-18.268-21.495-16.267-6.832 2.186-3.579 16.592 9.435 26.352 4.149 3.112 7.471 6.259 10.049 9.11m2.011-19.195c-.534-1.193-.43-4.262.628-5.531 1.332-1.599 5.502-5.38 12.688-.439m-13.316 5.97c1.588 1.536 3.207 2.966 4.858 4.172m13.664-5.474a40.742 40.742 0 0 0-1.569-1.626m-3.637-3.042c-.108-1.589.612-4.269 3.904-5.092 3.642-.91 6.487.09 9.761 2.888m-13.665 2.204c1.137.781 2.349 1.781 3.637 3.042m14.582-.651a88.431 88.431 0 0 0-1.301-1.425m-3.253-3.17c.217-1.179 1.431-3.539 4.554-3.539 3.905 0 19.521 5.206 23.75 30.908m-28.304-27.369c1.029.88 2.101 1.938 3.253 3.17m25.051 24.199c-12.037 0-23.173 14.315-25.051 25.376m25.051-25.376c8.785 0 10.086 6.181 9.11 13.339-.602 4.411-4.952 12.906-12.038 17.94m-54.368-31.279c-2.807 0-8.357 1.952-8.097 9.76.325 9.76 15.616 19.846 28.63 18.87 6.246-.521 10.411-2.386 11.712-3.254m0 0c-.651 5.903 3.254 12.038 13.014 10.737 3.518-.469 6.357-2.878 9.109-4.834m0 0c-4.771 2.045-14.25 5.354-13.989-4.276.325-12.037 20.171-26.352 20.821-15.291m-54.331-26.735a123.71 123.71 0 0 0-.977-3.196m13.072-3.904-.56-2.603m13.841.527-.651-2.804" stroke="#A4B1BC" stroke-width="2" stroke-linecap="round"/><defs><filter id="filter0_b_25673_15386" x="105" y="90" width="117.649" height="100" filterUnits="userSpaceOnUse" color-interpolation-filters="sRGB"><feFlood flood-opacity="0" result="BackgroundImageFix"/><feGaussianBlur in="BackgroundImageFix" stdDeviation="7"/><feComposite in2="SourceAlpha" operator="in" result="effect1_backgroundBlur_25673_15386"/><feBlend mode="normal" in="SourceGraphic" in2="effect1_backgroundBlur_25673_15386" result="shape"/></filter></defs></svg>
